X:018
T:Bridget Flynn's (reel) 
B:CRE3.187 (Ril Bhrid Ni Fhloinn)
F:file ID: cre.3/018brid_f
C:Martin Mulvihill
N:I have another version of this transcribed from Martin's record in 
the MVBT folder [file ID mvbt/024bridg_f]
R:reel
L:1/8
Q:180
M:C
K:Em
FA|BEE2 DEFA|BEE2 D2FA|BEE2 BAFA|ABAF E2:|
FA|Beed e3d|Bdef gfed|dBB2 B4|BcdB AGFA|
Beed e3d|Bdef gfef|g2g2 f2f2|BcdB AGFA||

%%%

